build/img/icons/jquery.svg

<svg width="96" height="96" viewBox="0 0 96 96" fill="none" xmlns="http://www.w3.org/2000/svg">
<path d="M58.3981 1.01904C58.1727 1.05242 57.9473 1.11918 57.7303 1.21932C55.8941 2.12892 53.8074 4.83269 53.4068 5.36677C53.3818 5.40015 53.3567 5.43353 53.34 5.46691C51.2784 8.55454 50.1767 12.1679 50.1349 15.9315C50.1099 18.7521 50.6608 21.5476 51.7792 24.2431C54.3833 30.4934 59.792 35.6673 66.2272 38.0874C66.4442 38.1625 66.6529 38.2376 67.0285 38.3711C67.0619 38.3878 67.379 38.4879 67.4291 38.4963L67.6628 38.5797C67.9967 38.6882 68.3389 38.7967 68.6728 38.8634C70.3671 39.2056 72.0197 39.3975 73.5722 39.4476C73.8393 39.4476 74.1064 39.4559 74.3735 39.4559C86.0838 39.4559 90.6244 31.1944 92.1351 28.4406C92.2853 28.1735 92.3938 27.9566 92.494 27.8231C92.494 27.8147 92.494 27.8147 92.5023 27.8064C93.1617 26.83 92.9113 25.5032 91.9348 24.8356C90.9666 24.1763 89.6395 24.4267 88.9717 25.403H88.9634C85.8417 30.0011 80.4999 31.3947 73.0965 29.5588C72.5456 29.4253 71.9446 29.2167 71.4104 29.0164C70.7093 28.766 70.0082 28.474 69.3572 28.1569C68.0635 27.5143 66.8448 26.7466 65.7431 25.8954C59.2327 20.8467 56.687 10.3404 60.4931 4.27358C61.0022 3.46412 60.9104 2.41265 60.2677 1.70333C59.7836 1.16925 59.0825 0.927248 58.3981 1.01904ZM39.4679 5.27497C38.9838 5.26663 38.4914 5.42518 38.0907 5.75898C34.8606 8.38764 31.5553 12.6936 31.4135 12.8689C31.3968 12.9023 31.3801 12.9273 31.355 12.9607C25.5124 21.4642 25.07 33.5644 30.2366 43.787C31.0462 45.4059 31.9643 46.9497 32.9409 48.3684L33.233 48.7856C34.0593 49.9956 34.9858 51.3642 36.171 52.4323C36.58 52.8997 37.0224 53.3503 37.4564 53.7842L37.6651 54.0012L37.8404 54.1764C38.2827 54.602 38.7334 55.036 39.2008 55.4532H39.2092C39.2426 55.5033 39.2927 55.5367 39.3344 55.5784C39.8602 56.0457 40.3944 56.488 41.1039 57.0471L41.2958 57.189C41.8467 57.6313 42.406 58.0485 42.9819 58.4574C43.0403 58.4991 43.0987 58.5409 43.1571 58.5826C43.3575 58.7161 43.5578 58.8413 43.7581 58.9831L43.9584 59.1167L44.1921 59.2669C44.6178 59.5506 45.0351 59.8093 45.6277 60.1514C46.0117 60.3851 46.4207 60.6188 46.6878 60.7523C46.8046 60.819 46.9298 60.8858 47.2219 61.0443L47.873 61.3865C47.9064 61.4032 48.0566 61.4699 48.09 61.4866C48.5157 61.7036 48.958 61.9122 49.4004 62.1125L50.0765 62.4129C50.5189 62.6049 50.9696 62.7884 51.5205 62.9971L51.7709 63.0889C51.7875 63.1056 51.9962 63.1807 52.0129 63.189C52.4135 63.3309 52.8225 63.4727 53.2315 63.6063L54.1663 63.915C54.6337 64.0736 55.1763 64.2572 55.7689 64.3573C58.6819 64.8413 61.5114 65.0917 64.1906 65.0917C64.5078 65.0917 64.825 65.0833 65.1338 65.0833C88.7213 64.5659 94.8561 44.5297 94.9145 44.3294C95.2066 43.3196 94.7309 42.2432 93.7794 41.7925C92.8279 41.3419 91.6927 41.659 91.1001 42.5269C85.1239 51.2557 73.8226 54.9442 62.3126 51.9066C61.7785 51.7731 61.261 51.6229 60.6183 51.4143C60.5098 51.3809 60.4179 51.3475 60.2427 51.2807C59.8671 51.1639 59.4998 51.0387 59.0825 50.8802L58.4899 50.6549C58.1477 50.5214 57.8055 50.3878 57.3881 50.2042L57.1127 50.0791C56.6035 49.8621 56.1111 49.6201 55.6687 49.4031L54.4501 48.7689C54.1747 48.6354 53.9326 48.4852 53.557 48.2599L53.3484 48.143L53.1397 48.0179C52.8309 47.8343 52.5221 47.6423 52.2383 47.4421L52.0379 47.3169C52.0213 47.3085 51.8543 47.1917 51.8376 47.175C51.5872 47.0165 51.3452 46.8579 51.1115 46.7077C50.594 46.3405 50.0848 45.9567 49.4922 45.4893L49.2585 45.2974C43.7498 40.8996 39.6766 35.0248 37.7652 28.7243C35.9874 22.9413 37.3062 15.3724 41.2958 8.47944C41.8133 7.58653 41.6214 6.45161 40.8284 5.78401C40.4361 5.45021 39.952 5.27497 39.4679 5.27497ZM15.9555 11.6839C15.4464 11.6839 14.9289 11.8675 14.5199 12.2347C10.4384 15.8981 7.38354 20.6464 7.04968 21.1888C-1.68088 33.8982 0.00513458 53.6507 5.998 65.7259C6.11486 65.9762 6.24006 66.2182 6.36526 66.4602L6.44872 66.5938C6.55723 66.8357 6.68243 67.0861 6.72416 67.1362C6.79093 67.2947 6.89109 67.47 6.93283 67.52C7.03299 67.7287 7.13314 67.9123 7.31677 68.2294L8.00119 69.406C8.10135 69.5646 8.20151 69.7315 8.2349 69.7899C8.36844 70.0068 8.51034 70.2322 8.65223 70.4575L8.98609 70.9915C9.08625 71.1501 9.18641 71.292 9.25319 71.3754C9.58705 71.8928 9.92092 72.4102 10.2882 72.9025C10.3049 72.9276 10.3216 72.9443 10.3382 72.961L10.4718 73.1445C10.7723 73.5785 11.0811 73.9957 11.3565 74.3379L12.5751 75.8817C12.5918 75.8984 12.7254 76.0569 12.7337 76.0736L12.909 76.2739C13.2763 76.7245 13.6685 77.1752 14.0608 77.6091C14.1193 77.6759 14.1777 77.7343 14.2361 77.801C14.6117 78.2099 14.9957 78.6188 15.3963 79.0444L15.7802 79.4116C16.0974 79.7454 16.4146 80.0709 16.7484 80.3796C16.7484 80.388 16.907 80.5382 16.907 80.5382L17.2409 80.8469C17.6415 81.2308 18.0589 81.6147 18.376 81.8817C18.3927 81.9068 18.6932 82.1655 18.7182 82.1821C19.1105 82.5326 19.5028 82.8664 19.9035 83.1919L21.9484 84.8108C22.2906 85.0611 22.6412 85.3115 23.0418 85.6036C23.1753 85.7037 23.3172 85.8039 23.4591 85.8956C23.5176 85.9457 23.5843 85.9958 23.6261 86.0208L25.1618 87.0472C25.7211 87.4144 26.2803 87.7566 26.9647 88.1655L27.332 88.3741C27.7576 88.6245 28.1917 88.8748 28.6006 89.0918C28.8427 89.2253 29.0847 89.3421 29.2934 89.4506C29.5855 89.6092 29.9027 89.7844 30.3868 90.0181C30.4286 90.0431 30.7708 90.21 30.8125 90.2267C31.2966 90.4687 31.7891 90.694 32.4067 90.9694C32.4067 90.9777 32.607 91.0695 32.607 91.0695C33.1746 91.3115 33.7255 91.5452 34.4516 91.8373C34.5685 91.8873 34.6853 91.9291 34.7104 91.9374C35.2279 92.1377 35.7704 92.338 36.2128 92.4965C36.2545 92.5132 36.4799 92.605 36.5216 92.6217C37.1142 92.822 37.6985 93.0139 38.4497 93.2476C38.5749 93.2893 38.7084 93.331 38.7251 93.331L39.1508 93.4645C39.6683 93.6231 40.1857 93.79 40.745 93.8985C44.718 94.6245 48.5991 95 52.2717 95H52.28C82.887 95 92.6359 70.374 92.736 70.1237C93.1116 69.1306 92.7027 68.0124 91.7678 67.495C90.8497 66.986 89.6812 67.228 89.0302 68.0708C81.176 78.4102 66.3607 82.2489 49.4004 78.3518C48.9914 78.2517 48.5741 78.1348 48.1651 78.0097L47.3638 77.7677C46.8213 77.6008 46.2788 77.4172 45.7529 77.2336C45.7446 77.2336 45.5025 77.1418 45.5025 77.1418C45.0351 76.9832 44.5677 76.7996 44.1587 76.6411L43.6913 76.4575C43.1738 76.2489 42.6563 76.0319 42.1556 75.8066L41.8634 75.6814C41.4127 75.4728 40.9787 75.2725 40.5447 75.0555C40.5113 75.0388 40.1691 74.872 40.1357 74.8636C39.8352 74.7134 39.5347 74.5548 39.1508 74.3462L37.4063 73.4116C37.231 73.2948 37.0474 73.1863 36.8721 73.0945C36.3463 72.769 35.8038 72.4436 35.2696 72.1014C35.1444 72.0263 35.0359 71.9429 34.8272 71.801C34.46 71.5673 34.1011 71.3253 33.5752 70.9582L33.3666 70.808C33.0077 70.5576 32.6571 70.2906 32.365 70.0736C32.1813 69.9401 31.9977 69.7899 31.6972 69.5646C31.4301 69.3559 31.1631 69.1556 30.9127 68.9554L30.4452 68.5715C30.053 68.2544 29.6857 67.9206 29.3018 67.5951C29.2517 67.5451 29.2099 67.5117 29.1515 67.47C28.7258 67.0778 28.2918 66.6855 27.7743 66.1932L26.2636 64.6911C25.8963 64.3156 25.5291 63.9317 25.1118 63.4727C24.7278 63.0471 24.3606 62.6215 23.8681 62.0374L22.9667 60.9359C22.8582 60.7773 22.7413 60.6188 22.5994 60.4519C22.2906 60.0346 21.9818 59.6257 21.673 59.1918C13.3597 47.7425 11.1896 23.8425 17.6666 15.0886C18.3176 14.2124 18.2008 12.9774 17.3828 12.2347C16.9822 11.8675 16.4647 11.6839 15.9555 11.6839Z" fill="#FFFDF8"/>
</svg>

<svg width="96" height="96" fill="none" xmlns="http://www.w3.org/2000/svg"><path d="M58.398 1.019c-.225.033-.45.1-.668.2-1.836.91-3.923 3.614-4.323 4.148a.727.727 0 00-.067.1c-2.062 3.088-3.163 6.7-3.205 10.465-.025 2.82.526 5.616 1.644 8.311 2.604 6.25 8.013 11.424 14.448 13.844.217.075.426.15.801.284.034.017.351.117.401.125l.234.084c.334.108.676.217 1.01.283 1.694.343 3.347.535 4.9.585.266 0 .533.008.8.008 11.71 0 16.251-8.262 17.762-11.015.15-.267.259-.484.359-.618 0-.008 0-.008.008-.017a2.144 2.144 0 00-.567-2.97 2.136 2.136 0 00-2.963.567h-.009c-3.121 4.598-8.463 5.992-15.866 4.156a15.233 15.233 0 01-1.687-.543 20.435 20.435 0 01-2.053-.86 21.791 21.791 0 01-3.614-2.26c-6.51-5.05-9.056-15.556-5.25-21.622a2.136 2.136 0 00-2.095-3.255zm-18.93 4.256a2.092 2.092 0 00-1.377.484c-3.23 2.629-6.536 6.935-6.678 7.11a.558.558 0 01-.058.092c-5.843 8.503-6.285 20.603-1.118 30.826a38.456 38.456 0 002.704 4.581l.292.418c.826 1.21 1.753 2.578 2.938 3.646.409.468.851.918 1.285 1.352l.21.217.174.175c.443.426.893.86 1.36 1.277h.01c.033.05.083.084.124.125.526.468 1.06.91 1.77 1.47l.192.141c.55.442 1.11.86 1.686 1.268l.175.126c.2.133.4.258.601.4l.2.134.234.15c.426.284.843.542 1.436.884.384.234.793.468 1.06.601.117.067.242.134.534.292l.651.343c.033.016.184.083.217.1.426.217.868.425 1.31.625l.677.3c.442.193.893.376 1.444.585l.25.092c.017.017.225.092.242.1.4.142.81.284 1.218.417l.935.309c.468.159 1.01.342 1.603.442 2.913.484 5.742.735 8.422.735.317 0 .634-.009.943-.009 23.587-.517 29.722-20.553 29.78-20.754a2.144 2.144 0 00-1.135-2.537 2.139 2.139 0 00-2.679.735c-5.976 8.729-17.277 12.417-28.787 9.38a24.753 24.753 0 01-1.695-.493 5.7 5.7 0 01-.375-.133 19.44 19.44 0 01-1.16-.4l-.593-.226a26.311 26.311 0 01-1.102-.45l-.275-.126c-.51-.217-1.002-.459-1.444-.676l-1.219-.634c-.275-.134-.517-.284-.893-.51l-.209-.116-.208-.125a13.898 13.898 0 01-.902-.576l-.2-.125a2.992 2.992 0 01-.2-.142c-.25-.158-.493-.317-.727-.467a39.136 39.136 0 01-1.619-1.219l-.233-.192c-5.51-4.397-9.582-10.272-11.494-16.573-1.778-5.783-.459-13.352 3.53-20.245a2.125 2.125 0 00-.467-2.695 2.104 2.104 0 00-1.36-.509zm-23.513 6.409c-.509 0-1.026.184-1.435.55-4.082 3.664-7.136 8.412-7.47 8.955C-1.68 33.899.005 53.65 5.998 65.726c.117.25.242.492.367.734l.084.134c.108.242.233.492.275.542.067.159.167.334.209.384.1.209.2.392.384.71L8 69.405c.1.159.2.325.234.384.133.217.275.442.417.667l.334.535c.1.158.2.3.267.383a27.47 27.47 0 001.035 1.528c.017.025.034.041.05.058l.134.183c.3.434.61.852.885 1.194l1.218 1.544c.017.016.15.175.159.192l.175.2c.367.45.76.901 1.152 1.335.058.067.117.125.175.192.376.409.76.818 1.16 1.243l.384.368c.317.333.635.659.968.968 0 .008.159.158.159.158l.334.309c.4.384.818.768 1.135 1.035.017.025.317.283.342.3.392.35.785.684 1.186 1.01l2.044 1.619c.343.25.693.5 1.094.793.133.1.275.2.417.292.059.05.125.1.167.125l1.536 1.026c.56.367 1.118.71 1.803 1.118l.367.21c.426.25.86.5 1.269.717.242.133.484.25.692.359.293.158.61.333 1.094.567.042.025.384.192.425.209.485.242.977.467 1.595.742 0 .009.2.1.2.1a90.45 90.45 0 001.845.768 65.879 65.879 0 001.761.66l.309.125a79.353 79.353 0 002.203.709l.426.133c.517.16 1.035.326 1.594.434C44.718 94.626 48.599 95 52.272 95h.008c30.607 0 40.356-24.626 40.456-24.876a2.138 2.138 0 00-.968-2.629 2.152 2.152 0 00-2.738.576C81.176 78.41 66.36 82.249 49.4 78.35a22.71 22.71 0 01-1.235-.341l-.801-.242a45.557 45.557 0 01-1.611-.534c-.008 0-.25-.092-.25-.092-.468-.159-.935-.342-1.344-.5l-.468-.184a42.286 42.286 0 01-1.535-.651l-.293-.126c-.45-.208-.884-.409-1.318-.626a9.056 9.056 0 00-.41-.191c-.3-.15-.6-.31-.984-.518l-1.745-.934a5.987 5.987 0 00-.534-.318c-.526-.325-1.068-.65-1.602-.993-.126-.075-.234-.158-.443-.3a34.092 34.092 0 01-1.252-.843l-.208-.15c-.36-.25-.71-.517-1.002-.734-.184-.134-.367-.284-.668-.51-.267-.208-.534-.408-.784-.609l-.468-.383c-.392-.318-.76-.651-1.143-.977a1.093 1.093 0 00-.15-.125c-.426-.392-.86-.784-1.378-1.277l-1.51-1.502c-.368-.375-.735-.76-1.152-1.218a54.85 54.85 0 01-1.244-1.436l-.901-1.101a5.698 5.698 0 00-.368-.484c-.308-.417-.617-.826-.926-1.26-8.313-11.45-10.483-35.35-4.006-44.103a2.135 2.135 0 00-1.712-3.405z" fill="#FFFDF8"/></svg>
